X:11
T:The Steampacket
R:Reel
S:Paddy Canny, Clare (fiddle)
D:Home tape of unknown provenance
M:4/4
N:As played
Z:Bernie Stocks
H:The 'dc' in bar 6 is a heavily leant on slur. This seems to be a feature
H:of local fiddle playing, often a 'dB' phrase.
H:The timing of the 'g' rolls in part 2 is perfection itself.
H:Long 'f's are slides
K:C
~G3c AGFG | AG~G2 Ad{e}dc | AcGc AFDE | FEFG Ad{e}dc |
AG~G2 AGFG | AG~G2 A2dc | AcGc AFDE | F2zG ABcA ||
dg~g2 ag~g2 | dg{a}ge fdcA | dg~g2 ag~g2 | ~d3e fdcA |
dg~g2 ag~g2 | abag f3g | (3ag^f {a}ge fdcA | d^cde fdcA ||
<end>
<start>
